X: 34910
T: Rock Of The Quilt
R: jig
M: 6/8
K: Adorian
c2|:BAB GED|E.AA {d}ABc|BAB GED|E.GG {GAGA}G2 B|
c{g}ec BdB|ABA {d}ABd|ege dBd|1 GAG {GAGA}G2 c:|2 GAG {d}GBd||
|:gfg edB|e.aa {b}aga|bab ged|e.gg {a}g2 B|
c{g}ec BdB|ABA {d}ABd|ege dBd|1 GAG {GA}G (3Bcd:|2 GAG {d}G3||

